X:1
T:Title
%%score 1 2
L:1/8
Q:1/4=110
M:4/4
K:Ab
V:1 treble nm="Grand Piano, Soprano"
V:2 bass nm="Choir Pad, Israel (Goss), LM"
V:1
 E2 A2 E2 A2 | B2 c2- c/ z/ B A2 | [EGB]2 [EAc]2 [EGB]2 [EAc]2 | [EBd]2 [Ece]2- [Ece][EBd] [EAc]2 | %4
w: By~John~Goss~(1800\-1880) * * *||||
 A2 [Af]2- [Af][Fd] [FA]2 | [Af]2 [Ae]2- [Ae][Ec] [CA]2 | C2 D2 E2 F2 | [FB]2 [EA]4 [DG]2- | %8
w: ||||
 [DG]2 [CA]6- | [CA]2 z2 z4 |] %10
w: ||
V:2
 E,2 A,2 E,2 A,2 | B,2 C2- C/ z/ B, A,2 | [E,B,]2 [A,C]2 [E,B,]2[K:treble] [A,C]2 | %3
 [B,D]2 [CE]2- [CE][B,D][K:bass] [A,C]2 | A,2 [D,D]2- [D,D][D,A,] [D,A,]2 | %5
 [D,D]2 [A,C]2- [A,C][A,,A,] [A,,A,]2 | C,2 D,2 E,2 F,2 | [D,D]2 [E,C]4 [E,B,]2- | %8
 [E,B,]2 [A,,A,]6- | [A,,A,]2 z2 z4 |] %10

